X:1
T:I Went to Pick Some Blaeberries
C:Traditional
M:3/4
L:1/4
Q:1/4=132
K:G
D | G2G | B2c/2B/2 | d2d | B3 | d2c/2d/2 | B3 | d3/2c/2B | A2D | G2G | B2c/2B/2 | d2d | B2D | G2G | A2B | A3 | G2 |]
